X: 9790
T: Denis Doody's
R: polka
M: 2/4
K: Adorian
|:cA A/B/A/G/|EA A2|B/c/B/A/ G>A|Bc de/d/|
cA A/B/A/G/|EA A>B|cd e>d|cB G2:|
|:ea a/b/a/g/|ea a>g|e/f/g ab|c'2 ab|
c'2 bc'/b/|ae ed|e2 A>B|cd e2:|

